X:392
T: "Der Bettelvogt"
N: Z1072
O: Europa, Mitteleuropa, Deutschland, Franken
R: Romanze, Ballade
M: 4/4
L: 1/8
K: A
E2 | A2AAA3c | cBBBB3
d | cBcdfeee | edddc2z
e | ecccd3d | dBBBc3
E | FFGGA2BB | ccdGA2

@@@ Tune index: 10150
